svg/u1f9d4_1f3ff_200d_2642.svg

<svg viewBox="0 0 128 128" xmlns="http://www.w3.org/2000/svg">
  <path id="ears" d="M99.09,58.61H28.9c-8,0-14.55,6.97-14.55,15.5s6.54,15.5,14.55,15.5H99.1 c8,0,14.55-6.97,14.55-15.5S107.1,58.61,99.09,58.61z" fill="#3C2B24"/>
  <g id="hair_x5F_group_2_">
    <path id="hair_6_" d="M64.11,3.79h-0.02c0,0-0.01,0-0.02,0C9.78,4.1,19.19,71.7,19.19,71.7 s3.28,50.38,42.87,52.04c0.14,0.01,0.29,0.01,0.42,0.02c0.52,0.02,1.06,0.03,1.6,0.03h0.02c0.55,0,1.09-0.01,1.63-0.03 c0.13,0,0.27-0.01,0.4-0.02c39.56-1.64,42.23-51.2,42.23-51.2S120.37,4.11,64.11,3.79z" fill="#232020"/>
    <radialGradient id="hairHighlights_1_" cx="66.4307" cy="66.3767" gradientTransform="matrix(9.400000e-14 -0.9583 -0.7417 -8.100000e-14 113.5853 127.299)" gradientUnits="userSpaceOnUse" r="62.3225">
      <stop offset="0.7945" stop-color="#444140" stop-opacity="0"/>
      <stop offset="1" stop-color="#444140"/>
    </radialGradient>
    <path id="hairHighlights_6_" d="M64.11,3.79h-0.02c0,0-0.01,0-0.02,0 C9.78,4.1,19.19,71.7,19.19,71.7s3.4,52.09,44.9,52.09s44.27-51.25,44.27-51.25S120.37,4.11,64.11,3.79z" fill="url(#hairHighlights_1_)"/>
  </g>
  <path id="head_2_" d="M98.67,89.2c-1.67,4.8-4.41,7.27-8.74,8.2c-7.08,1.84-9.21-7.77-25.95-7.77 s-20.24,9.33-27.23,7.72c-5.52-1.19-7.48-7.13-8.67-11.53c-2.89-10.76-0.04-36.33,0.95-38.99c1.39-3.75,5.24-5.92,9.13-5.21 c5.98,1.1,15.51,2.45,26.02,2.45h0.23c10.51,0,20.04-1.36,26.02-2.45c3.89-0.71,7.73,1.46,9.13,5.21 C100.64,49.73,103.61,74.96,98.67,89.2z" fill="#70534A"/>
  <path id="nose_2_" d="M69.24,85.69c-0.15-0.06-0.29-0.09-0.44-0.11h-9.6c-0.15,0.02-0.29,0.05-0.44,0.11 c-0.87,0.35-1.35,1.25-0.94,2.21c0.42,0.96,2.33,3.65,6.18,3.65s5.76-2.69,6.18-3.65C70.58,86.95,70.1,86.05,69.24,85.69z" fill="#33251F"/>
  <g id="eyebrows_3_">
    <path d="M95.56,62.25L95.56,62.25c0.01-0.01-3.09-4.92-10.26-4.92c-7.17,0-10.27,4.9-10.27,4.9l0.01,0.01 c-0.25,0.35-0.41,0.78-0.41,1.25c0,1.19,0.95,2.15,2.13,2.15c0.24,0,0.84-0.18,0.89-0.2c4.3-1.79,7.66-1.79,7.66-1.79 s3.34,0.01,7.63,1.8c0.05,0.03,0.65,0.2,0.89,0.2c1.18,0,2.13-0.96,2.13-2.14C95.96,63.03,95.81,62.6,95.56,62.25z" fill="#1A1717"/>
    <path d="M52.97,62.23L52.97,62.23c0.01-0.01-3.09-4.92-10.26-4.92c-7.17,0-10.27,4.9-10.27,4.9l0.01,0.01 c-0.25,0.35-0.41,0.78-0.41,1.25c0,1.19,0.95,2.15,2.13,2.15c0.24,0,0.84-0.18,0.89-0.2c4.3-1.79,7.66-1.79,7.66-1.79 s3.34,0.01,7.63,1.8c0.05,0.03,0.65,0.2,0.89,0.2c1.18,0,2.13-0.96,2.13-2.14C53.37,63.01,53.22,62.58,52.97,62.23z" fill="#1A1717"/>
  </g>
  <g id="eyes_6_">
    <ellipse cx="42.96" cy="73.33" fill="#1A1717" rx="6.67" ry="6.91"/>
    <ellipse cx="85.43" cy="73.33" fill="#1A1717" rx="6.67" ry="6.91"/>
  </g>
  <path id="mouth" d="M64.24,107.43c5.14,0,10.84-3.12,13.63-5.51c0.74-0.62,0.29-1.83-0.68-1.83H51.19 c-0.97,0-1.41,1.21-0.68,1.83C53.35,104.31,59.11,107.43,64.24,107.43z" fill="#70534A"/>
</svg>

<svg viewBox="0 0 128 128" xmlns="http://www.w3.org/2000/svg">
  <defs>
    <radialGradient id="hairHighlights_1_" cx="-66.40766" cy="-86.765136" gradientTransform="matrix(0 -0.9583 -0.7417 0 0 0)" gradientUnits="userSpaceOnUse" r="62.3225">
      <stop offset="0.7945" stop-color="#444140" stop-opacity="0"/>
      <stop offset="1" stop-color="#444140"/>
    </radialGradient>
  </defs>
  <path id="ears" d="M99.09,58.61 L28.9,58.61 C20.9,58.61 14.35,65.58 14.35,74.11 C14.35,82.64 20.89,89.61 28.9,89.61 L99.1,89.61 C107.1,89.61 113.65,82.64 113.65,74.11 C113.65,65.58 107.1,58.61 99.09,58.61 Z" fill="#3C2B24"/>
  <path id="hair_6_" d="M64.11,3.79 L64.09,3.79 C64.09,3.79 64.08,3.79 64.07,3.79 C9.78,4.1 19.19,71.7 19.19,71.7 C19.19,71.7 22.47,122.08 62.06,123.74 C62.2,123.75 62.35,123.75 62.48,123.76 C63,123.78 63.54,123.79 64.08,123.79 L64.1,123.79 C64.65,123.79 65.19,123.78 65.73,123.76 C65.86,123.76 66,123.75 66.13,123.74 C105.69,122.1 108.36,72.54 108.36,72.54 C108.36,72.54 120.37,4.11 64.11,3.79 Z" fill="#232020"/>
  <path id="hairHighlights_6_" d="M64.11,3.79 L64.09,3.79 C64.09,3.79 64.08,3.79 64.07,3.79 C9.78,4.1 19.19,71.7 19.19,71.7 C19.19,71.7 22.59,123.79 64.09,123.79 C105.59,123.79 108.36,72.54 108.36,72.54 C108.36,72.54 120.37,4.11 64.11,3.79 Z" fill="url(#hairHighlights_1_)"/>
  <path id="head_2_" d="M98.67,89.2 C97,94 94.26,96.47 89.93,97.4 C82.85,99.24 80.72,89.63 63.98,89.63 C47.24,89.63 43.74,98.96 36.75,97.35 C31.23,96.16 29.27,90.22 28.08,85.82 C25.19,75.06 28.04,49.49 29.03,46.83 C30.42,43.08 34.27,40.91 38.16,41.62 C44.14,42.72 53.67,44.07 64.18,44.07 L64.41,44.07 C74.92,44.07 84.45,42.71 90.43,41.62 C94.32,40.91 98.16,43.08 99.56,46.83 C100.64,49.73 103.61,74.96 98.67,89.2 Z" fill="#70534A"/>
  <path id="nose_2_" d="M69.24,85.69 C69.09,85.63 68.95,85.6 68.8,85.58 L59.2,85.58 C59.05,85.6 58.91,85.63 58.76,85.69 C57.89,86.04 57.41,86.94 57.82,87.9 C58.24,88.86 60.15,91.55 64,91.55 C67.85,91.55 69.76,88.86 70.18,87.9 C70.58,86.95 70.1,86.05 69.24,85.69 Z" fill="#33251F"/>
  <path d="M95.56,62.25 L95.56,62.25 C95.57,62.24 92.47,57.33 85.3,57.33 C78.13,57.33 75.03,62.23 75.03,62.23 L75.04,62.24 C74.79,62.59 74.63,63.02 74.63,63.49 C74.63,64.68 75.58,65.64 76.76,65.64 C77,65.64 77.6,65.46 77.65,65.44 C81.95,63.65 85.31,63.65 85.31,63.65 C85.31,63.65 88.65,63.66 92.94,65.45 C92.99,65.48 93.59,65.65 93.83,65.65 C95.01,65.65 95.96,64.69 95.96,63.51 C95.96,63.03 95.81,62.6 95.56,62.25 Z" fill="#1A1717"/>
  <path d="M52.97,62.23 L52.97,62.23 C52.98,62.22 49.88,57.31 42.71,57.31 C35.54,57.31 32.44,62.21 32.44,62.21 L32.45,62.22 C32.2,62.57 32.04,63 32.04,63.47 C32.04,64.66 32.99,65.62 34.17,65.62 C34.41,65.62 35.01,65.44 35.06,65.42 C39.36,63.63 42.72,63.63 42.72,63.63 C42.72,63.63 46.06,63.64 50.35,65.43 C50.4,65.46 51,65.63 51.24,65.63 C52.42,65.63 53.37,64.67 53.37,63.49 C53.37,63.01 53.22,62.58 52.97,62.23 Z" fill="#1A1717"/>
  <path d="M49.63,73.33 A6.67 6.91 0 1 1 36.29,73.33 A6.67 6.91 0 1 1 49.63,73.33 Z" fill="#1A1717"/>
  <path d="M92.1,73.33 A6.67 6.91 0 1 1 78.76,73.33 A6.67 6.91 0 1 1 92.1,73.33 Z" fill="#1A1717"/>
  <path id="mouth" d="M64.24,107.43 C69.38,107.43 75.08,104.31 77.87,101.92 C78.61,101.3 78.16,100.09 77.19,100.09 L51.19,100.09 C50.22,100.09 49.78,101.3 50.51,101.92 C53.35,104.31 59.11,107.43 64.24,107.43 Z" fill="#70534A"/>
</svg>
